icons/table-24.svg

<svg xmlns="http://www.w3.org/2000/svg" width="24" height="24" viewBox="0 0 24 24">
  <defs/>
  <path d="M2,3.75 C2,2.784 2.784,2 3.75,2 L20.25,2 C21.216,2 22,2.784 22,3.75 L22,20.25 C22,21.216 21.216,22 20.25,22 L3.75,22 C2.784,22 2,21.216 2,20.25 Z M9,9 L9,20.5 L20.25,20.5 C20.388,20.5 20.5,20.388 20.5,20.25 L20.5,9 Z M20.5,7.5 L20.5,3.75 C20.5,3.612 20.388,3.5 20.25,3.5 L9,3.5 L9,7.5 Z M3.5,9 L3.5,20.25 C3.5,20.388 3.612,20.5 3.75,20.5 L7.5,20.5 L7.5,9 Z M7.5,7.5 L7.5,3.5 L3.75,3.5 C3.612,3.5 3.5,3.612 3.5,3.75 L3.5,7.5 Z"/>
</svg>

<svg xmlns="http://www.w3.org/2000/svg" width="24" height="24" viewBox="0 0 24 24"><path d="M2 3.75C2 2.784 2.784 2 3.75 2h16.5c.966 0 1.75.784 1.75 1.75v16.5A1.75 1.75 0 0120.25 22H3.75A1.75 1.75 0 012 20.25zM9 9v11.5h11.25a.25.25 0 00.25-.25V9zm11.5-1.5V3.75a.25.25 0 00-.25-.25H9v4zM3.5 9v11.25c0 .138.112.25.25.25H7.5V9zm4-1.5v-4H3.75a.25.25 0 00-.25.25V7.5z"/></svg>
